X: 37786
T: Song Of The Last Harper, The
R: jig
M: 6/8
K: Gmajor
E|EGB BAG|FDF AGF|EGB B^cd|AGF E2E|EGB BAG|
FDF AGF|GAB GAB|AGF E2E|Eee ede|fdB dBA|Bee ede|
fdB d2A|Bee ede|fdB dBA|BAB d^cB|AGF E2||

